; generated by PrusaSlicer 2.9.4 on 2026-01-02 at 19:19:57 UTC


; printer_model = COREONE
; filament_type = PC
; filament_abrasive = 0
; nozzle_diameter = 0.4
; nozzle_high_flow = 1
; bed_temperature = 115
; brim_width = 0
; fill_density = 10%
; layer_height = 0.2
; temperature = 275
; ironing = 0
; support_material = 1
; extruder_colour = ""
; max_layer_z = 157.20
; objects_info = {"objects":[{"name":"topcornerrear-a1.stl","polygon":[[72.082,212.500],[72.243,212.500],[48.737,212.500],[48.374,212.342],[35.076,193.510],[35.061,187.585],[35.198,187.500],[36.966,187.500],[36.966,178.000],[37.092,177.617],[37.319,177.500],[155.759,177.500],[156.252,177.376],[156.500,177.212],[156.949,176.682],[157.270,175.895],[157.382,175.000],[157.381,7.500],[202.218,7.500],[202.247,175.454],[202.330,175.895],[202.652,176.682],[203.100,177.212],[203.595,177.469],[212.681,177.500],[212.952,177.678],[213.034,178.000],[213.034,187.500],[214.802,187.500],[214.939,187.584],[214.948,193.359],[214.876,193.612],[201.683,212.271],[201.361,212.490],[70.786,212.500]]}]}
; filament used [mm] = 25659.84
; filament used [g] = 75.30
; filament cost = 3.88
; filament used [cm3] = 61.72
; total filament used for wipe tower [g] = 0.00
; estimated printing time (normal mode) = 5h 7m 26s
; estimated printing time (silent mode) = 5h 32m 30s

;
;

;
;

;
;

;
;

M73 P0 R307
M73 Q0 S332
M201 X10000 Y10000 Z400 E5000
M203 X350 Y350 Z12 E100
M204 P7000 R2500 T7000
M205 X10.00 Y10.00 Z2.00 E10.00
M205 S0 T0
M486 S0
M486 Atopcornerrear-a1.stl
M486 S-1
;TYPE:Custom
M17
M862.1 P0.4 A0 F1
M862.3 P "COREONE"
M862.5 P2
M862.6 P"Input shaper"
M115 U6.3.4+10511
; PID for Copper Block
M301 P25.03 I2.06 D76.09
M555 X166.612 Y2.97165 W32 H189.191
G90
M83
M140 S115
M109 R250
M84 E
G28
M870 C
; Min chamber temp section
M104 S150
G1 Z10 F720
G1 X242 Y-9 F4800
M191 S40
M141 S55
M107
M140 S110
G0 Z40 F10000
M104 T0 S150
M190 R110
M107
G29 G
M109 R250
M302 S155
G1 E-2 F2400
M84 E
M117 Wiping Nozzle
G0 X249 Y-17 Z5 F5000
G0 X211 Y-19 Z4 F5000
G0 X211 Y-17 Z4 F5000
G0 X249 Y-19 Z4 F5000
G0 X211 Y-17 Z4 F5000
G0 X211 Y-19 Z4 F5000
G0 X249 Y-17 Z4 F5000
G0 X249 Y-17 Z4 F5000
G0 X211 Y-19 Z4 F5000
G0 X211 Y-17 Z4 F5000
G0 X249 Y-18 Z4 F5000
G0 X211 Y-19 Z4 F5000
G0 X211 Y-19 Z4 F5000
G0 X249 Y-17 Z5 F5000
;G29 P9 X208 Y-2.5 W32 H4
; MBL
M84 E
G29 P1
G29 P1 X150 Y0 W100 H20 C
G29 P3.2
G29 P3.13
G29 A
; prepare for purge
M104 S275
G0 X186 Y-2.5 Z15 F4800
M109 S275
G92 E0
M569 S0 E
M591 S0
; Extrude purge line
G92 E0
M118 A1 filmon:reset
M118 A1 filmon:enable
;M118 A1 filmon:arm
G1 E2 F2400
G0 E5 X186 Z0.2 F500
G0 X176 E4 F500
G0 X166 E4 F650
G0 X156 E4 F800
G0 X153 Z0.05 F8000
G0 X150 Z0.2 F8000
M591 R
G92 E0
M221 S100
G21
G90
M83
M572 S0.05
M142 S45
M107
;LAYER_CHANGE
;Z:0.2
;HEIGHT:0.2
G1 E-.7 F2700
G1 Z1.7 F720
M486 S0
G1 X168.321 Y173.16 F21000
G1 Z.2 F720
G1 E.7 F1500
M204 P500
;TYPE:Perimeter
;WIDTH:0.499999
G1 F2700
G1 X168.032 Y173.093 E.01128
G1 X167.519 Y173.093 E.0195
G1 X167.519 Y35.903 E5.21408
G1 X167.946 Y35.751 E.01723
G1 X168.716 Y35.366 E.03272
G1 X169.27 Y34.988 E.02549
G1 X169.857 Y34.466 E.02985
G2 X170.47 Y33.644 I-7.957 J-6.567 E.03899
G1 X170.761 Y32.991 E.02717
G2 X170.636 Y30.572 I-3.233 J-1.046 E.09413
G2 X170.085 Y29.676 I-4.417 J2.1 E.04005
G1 X168.563 Y27.812 E.09146
G1 X168.333 Y27.629 E.01117
G1 X168.032 Y27.56 E.01174
G1 X167.52 Y27.56 E.01946
G1 X167.52 Y7.88 E.74796
G1 X192.864 Y7.882 E.96323
G1 X192.859 Y27.56 E.74789
G1 X192.351 Y27.56 E.01931
G1 X192.05 Y27.63 E.01175
G1 X191.82 Y27.812 E.01115
G1 X190.111 Y29.907 E.10276
G2 X189.606 Y30.945 I4.47 J2.812 E.04396
G2 X189.482 Y32.4 I3.422 J1.024 E.05589
G2 X190.056 Y33.882 I3.785 J-.613 E.06084
G2 X191.674 Y35.37 I4.193 J-2.934 E.0842
G2 X192.864 Y35.911 I3.719 J-6.611 E.04974
G1 X192.861 Y173.093 E5.21378
G1 X192.352 Y173.093 E.01935
M73 P0 R306
G1 X192.051 Y173.163 E.01175
G1 X191.821 Y173.345 E.01115
G1 X190.111 Y175.44 E.10278
G2 X189.607 Y176.478 I4.47 J2.812 E.04394
G2 X189.483 Y177.933 I3.422 J1.024 E.05589
G2 X190.057 Y179.415 I3.783 J-.613 E.06084
G2 X191.674 Y180.903 I4.192 J-2.933 E.08417
G2 X192.859 Y181.442 I3.722 J-6.615 E.04954
G1 X192.862 Y191.256 E.37299
G1 X167.52 Y191.25 E.96316
G1 X167.524 Y181.434 E.37307
G1 X167.946 Y181.284 E.01702
M73 Q0 S331
G1 X168.716 Y180.899 E.03272
G1 X169.273 Y180.519 E.02563
G1 X169.951 Y179.898 E.03494
G1 X170.47 Y179.177 E.03376
G1 X170.757 Y178.533 E.0268
G2 X170.806 Y176.573 I-3.237 J-1.061 E.07558
G2 X170.085 Y175.209 I-3.988 J1.235 E.05898
G1 X168.563 Y173.345 E.09146
G1 X168.37 Y173.192 E.00936
M204 P3000
M204 T250
G1 X168.121 Y173.592 F21000
M204 T7000
M204 P500
;TYPE:External perimeter
G1 F2700
G1 X168.032 Y173.55 E.00374
G1 X167.062 Y173.55 E.03687
G1 X167.062 Y35.576 E5.24388
G1 X167.745 Y35.341 E.02745
G1 X168.462 Y34.986 E.03041
G1 X168.967 Y34.646 E.02314
G1 X169.554 Y34.124 E.02985
G1 X169.703 Y33.933 E.00921
G1 X170.052 Y33.458 E.0224
G1 X170.339 Y32.814 E.0268
G2 X170.209 Y30.735 I-2.805 J-.868 E.08093
G2 X169.73 Y29.965 I-4.004 J1.954 E.03453
G1 X168.209 Y28.101 E.09144
G1 X168.032 Y28.017 E.00745
G1 X167.063 Y28.017 E.03683
G1 X167.063 Y7.423 E.7827
G1 X193.321 Y7.425 E.99797
G1 X193.316 Y28.017 E.78263
G1 X192.351 Y28.017 E.03668
G1 X192.174 Y28.101 E.00745
G1 X190.477 Y30.181 E.10203
G2 X190.034 Y31.106 I3.942 J2.455 E.03906
G2 X190.183 Y33.176 I2.831 J.837 E.0806
G2 X191.447 Y34.674 I3.688 J-1.83 E.07522
G2 X192.372 Y35.223 I3.84 J-5.414 E.04093
G1 X193.321 Y35.578 E.03851
G1 X193.318 Y173.55 E5.2438
G1 X192.352 Y173.55 E.03671
G1 X192.175 Y173.634 E.00745
G1 X190.477 Y175.714 E.10205
G2 X190.034 Y176.64 I3.942 J2.455 E.03909
G2 X190.184 Y178.71 I2.831 J.836 E.0806
G2 X191.448 Y180.207 I3.691 J-1.834 E.07518
G2 X192.373 Y180.756 I3.837 J-5.411 E.04093
G1 X193.316 Y181.109 E.03827
G1 X193.319 Y191.713 E.40302
G1 X167.062 Y191.707 E.99793
G1 X167.067 Y181.108 E.40283
G1 X167.745 Y180.874 E.02726
G1 X168.462 Y180.519 E.03041
G1 X168.969 Y180.177 E.02324
G1 X169.585 Y179.624 E.03146
G1 X170.053 Y178.991 E.02992
G1 X170.34 Y178.347 E.0268
G2 X170.209 Y176.268 I-2.806 J-.867 E.08093
G2 X169.731 Y175.498 I-4.003 J1.955 E.0345
G1 X168.209 Y173.634 E.09146
G1 X168.175 Y173.618 E.00143
M204 P3000
G1 X167.779 Y173.558 F21000
G1 E-.7 F2700
G1 X179.837 Y93.875 Z1.607 F21000
G1 X180.157 Y91.761 Z1.64
G1 X180.476 Y89.647 Z1.666
G1 X180.796 Y87.533 Z1.685
G1 X181.436 Y83.305 Z1.7
G1 X192.681 Y8.991
G1 Z.2 F720
G1 E.7 F1500
M204 P500
;TYPE:Solid infill
;WIDTH:0.501266
G1 F6000
G1 X191.96 Y8.271 E.03883
G1 X191.312 Y8.271 E.0247
G1 X192.475 Y9.434 E.06268
G1 X192.475 Y10.082 E.0247
G1 X190.664 Y8.27 E.09764
G1 X190.015 Y8.27 E.02473
G1 X192.475 Y10.73 E.13259
G1 X192.475 Y11.378 E.0247
G1 X189.367 Y8.27 E.16751
G1 X188.719 Y8.27 E.0247
G1 X192.474 Y12.026 E.20241
G1 X192.474 Y12.674 E.0247
G1 X188.07 Y8.27 E.23737
G1 X187.422 Y8.27 E.0247
G1 X192.474 Y13.322 E.27229
G1 X192.474 Y13.97 E.0247
G1 X186.774 Y8.27 E.30722
G1 X186.126 Y8.27 E.0247
G1 X192.474 Y14.618 E.34214
G1 X192.474 Y15.266 E.0247
G1 X185.477 Y8.27 E.3771
G1 X184.829 Y8.27 E.0247
G1 X192.474 Y15.914 E.41202
G1 X192.473 Y16.562 E.0247
G1 X184.181 Y8.27 E.44692
G1 X183.533 Y8.27 E.0247
G1 X192.473 Y17.21 E.48185
G1 X192.473 Y17.858 E.0247
G1 X182.884 Y8.27 E.5168
G1 X182.236 Y8.27 E.0247
G1 X192.473 Y18.506 E.55173
G1 X192.473 Y19.155 E.02473
G1 X181.588 Y8.27 E.58668
G1 X180.94 Y8.27 E.0247
G1 X192.473 Y19.803 E.62161
G1 X192.472 Y20.451 E.0247
G1 X180.291 Y8.269 E.65656
G1 X179.643 Y8.269 E.0247
G1 X192.472 Y21.099 E.69148
G1 X192.472 Y21.747 E.0247
G1 X178.995 Y8.269 E.72641
G1 X178.347 Y8.269 E.0247
G1 X192.472 Y22.395 E.76134
G1 X192.472 Y23.043 E.0247
G1 X177.698 Y8.269 E.79629
G1 X177.05 Y8.269 E.0247
G1 X192.472 Y23.691 E.83121
G1 X192.472 Y24.339 E.0247
G1 X176.402 Y8.269 E.86614
G1 X175.754 Y8.269 E.0247
G1 X192.471 Y24.987 E.90104
G1 X192.471 Y25.635 E.0247
G1 X175.105 Y8.269 E.93599
G1 X174.457 Y8.269 E.0247
G1 X192.471 Y26.283 E.97092
G1 X192.471 Y26.931 E.0247
G1 X173.809 Y8.269 E1.00584
G1 X173.16 Y8.269 E.02473
G1 X192.114 Y27.222 E1.02156
G1 X191.885 Y27.275 E.00896
G1 X191.665 Y27.421 E.01006
G1 X172.512 Y8.269 E1.03228
G1 X171.864 Y8.269 E.0247
G1 X191.359 Y27.763 E1.05071
G1 X191.067 Y28.12 E.01758
G1 X171.216 Y8.269 E1.06993
G1 X170.567 Y8.269 E.02473
G1 X190.776 Y28.477 E1.0892
G1 X190.485 Y28.834 E.01755
G1 X169.919 Y8.268 E1.10847
G1 X169.271 Y8.268 E.0247
G1 X190.194 Y29.191 E1.12771
G1 X189.908 Y29.553 E.01758
G1 X168.623 Y8.268 E1.14722
G1 X167.974 Y8.268 E.02473
G1 X189.644 Y29.938 E1.16797
G1 X189.42 Y30.362 E.01828
G1 X167.909 Y8.851 E1.1594
G1 X167.909 Y9.499 E.0247
G1 X189.237 Y30.827 E1.14954
G1 X189.114 Y31.352 E.02055
G1 X167.909 Y10.147 E1.14291
G1 X167.909 Y10.796 E.02473
G1 X189.061 Y31.958 E1.14032
G2 X189.141 Y32.676 I3.619 J-.041 E.02758
G1 X167.909 Y11.444 E1.14436
G1 X167.909 Y12.092 E.0247
G1 X189.505 Y33.688 E1.16398
G2 X190.053 Y34.525 I3.864 J-1.932 E.03821
G2 X191.574 Y35.757 I4.391 J-3.866 E.07495
G1 X192.476 Y36.659 E.04862
G1 X192.476 Y37.307 E.0247
G1 X167.909 Y12.74 E1.32411
G1 X167.909 Y13.388 E.0247
G1 X192.476 Y37.955 E1.32411
G1 X192.476 Y38.603 E.0247
G1 X167.909 Y14.037 E1.32408
G1 X167.909 Y14.685 E.0247
G1 X192.476 Y39.252 E1.32411
G1 X192.476 Y39.9 E.0247
G1 X167.909 Y15.333 E1.32411
G1 X167.909 Y15.981 E.0247
G1 X192.476 Y40.548 E1.32411
G1 X192.476 Y41.196 E.0247
G1 X167.909 Y16.629 E1.32411
G1 X167.909 Y17.278 E.02473
G1 X192.476 Y41.844 E1.32408
G1 X192.476 Y42.492 E.0247
G1 X167.909 Y17.926 E1.32408
G1 X167.909 Y18.574 E.0247
G1 X192.476 Y43.141 E1.32411
G1 X192.476 Y43.789 E.0247
G1 X167.909 Y19.222 E1.32411
G1 X167.909 Y19.87 E.0247
G1 X192.475 Y44.437 E1.32408
G1 X192.475 Y45.085 E.0247
G1 X167.909 Y20.519 E1.32406
G1 X167.909 Y21.167 E.0247
G1 X192.475 Y45.733 E1.32406
G1 X192.475 Y46.382 E.02473
G1 X167.909 Y21.815 E1.32408
G1 X167.909 Y22.463 E.0247
G1 X192.475 Y47.03 E1.32408
G1 X192.475 Y47.678 E.0247
G1 X167.909 Y23.111 E1.32408
G1 X167.909 Y23.76 E.02473
G1 X192.475 Y48.326 E1.32406
G1 X192.475 Y48.974 E.0247
G1 X167.909 Y24.408 E1.32406
G1 X167.909 Y25.056 E.0247
G1 X192.475 Y49.622 E1.32406
G1 X192.475 Y50.271 E.02473
G1 X167.909 Y25.704 E1.32408
G1 X167.909 Y26.352 E.0247
G1 X192.475 Y50.919 E1.32408
G1 X192.475 Y51.567 E.0247
G1 X170.51 Y29.601 E1.1839
G1 X170.417 Y29.471 E.00609
G1 X168.86 Y27.561 E.09392
G2 X168.498 Y27.275 I-1.011 J.906 E.01767
G1 X168.088 Y27.18 E.01604
G1 X167.703 Y26.795 E.02075
M204 P3000
G1 E-.7 F2700
G1 X170.822 Y30.561 Z.285 F21000
G1 Z.2 F720
G1 E.7 F1500
M204 P500
G1 F6000
G1 X192.475 Y52.215 E1.16708
G1 X192.475 Y52.863 E.0247
G1 X171.304 Y31.692 E1.14107
G3 X171.294 Y32.33 I-2.64 J.277 E.02438
G1 X192.475 Y53.512 E1.14164
G1 X192.475 Y54.16 E.0247
G1 X171.196 Y32.88 E1.14692
G3 X171.023 Y33.355 I-1.89 J-.419 E.01932
G1 X192.475 Y54.808 E1.15625
G1 X192.475 Y55.456 E.0247
G1 X170.821 Y33.802 E1.16711
G3 X170.56 Y34.189 I-1.577 J-.777 E.01784
G1 X192.475 Y56.104 E1.18117
G1 X192.475 Y56.752 E.0247
G1 X170.284 Y34.561 E1.19605
G3 X169.962 Y34.888 I-1.286 J-.946 E.01755
G1 X192.475 Y57.401 E1.21341
G1 X192.475 Y58.049 E.0247
G1 X169.621 Y35.195 E1.23178
G3 X169.249 Y35.471 I-1.657 J-1.84 E.01768
G1 X192.475 Y58.697 E1.25183
G1 X192.475 Y59.345 E.0247
G1 X168.858 Y35.728 E1.27291
G1 X168.426 Y35.944 E.01841
G1 X192.475 Y59.993 E1.29619
G1 X192.475 Y60.642 E.02473
G1 X167.983 Y36.15 E1.32007
G1 X167.908 Y36.178 E.00305
G1 X167.908 Y36.722 E.02073
G1 X192.475 Y61.29 E1.32414
G1 X192.475 Y61.938 E.0247
G1 X167.908 Y37.371 E1.32411
G1 X167.908 Y38.019 E.0247
G1 X192.475 Y62.586 E1.32411
G1 X192.475 Y63.234 E.0247
G1 X167.908 Y38.667 E1.32411
G1 X167.908 Y39.315 E.0247
G1 X192.475 Y63.882 E1.32411
G1 X192.475 Y64.531 E.02473
G1 X167.908 Y39.963 E1.32414
G1 X167.908 Y40.612 E.02473
G1 X192.475 Y65.179 E1.32411
G1 X192.475 Y65.827 E.0247
G1 X167.908 Y41.26 E1.32411
G1 X167.908 Y41.908 E.0247
G1 X192.475 Y66.475 E1.32411
G1 X192.475 Y67.123 E.0247
G1 X167.908 Y42.556 E1.32411
G1 X167.908 Y43.204 E.0247
G1 X192.475 Y67.772 E1.32414
G1 X192.475 Y68.42 E.0247
G1 X167.908 Y43.853 E1.32411
G1 X167.908 Y44.501 E.0247
G1 X192.475 Y69.068 E1.32411
G1 X192.475 Y69.716 E.0247
G1 X167.908 Y45.149 E1.32411
G1 X167.908 Y45.797 E.0247
G1 X192.475 Y70.364 E1.32411
G1 X192.475 Y71.012 E.0247
G1 X167.908 Y46.445 E1.32411
G1 X167.908 Y47.094 E.02473
G1 X192.475 Y71.661 E1.32411
G1 X192.475 Y72.309 E.0247
G1 X167.908 Y47.742 E1.32411
G1 X167.908 Y48.39 E.0247
G1 X192.475 Y72.957 E1.32411
G1 X192.475 Y73.605 E.0247
M73 P0 R305
G1 X167.908 Y49.038 E1.32411
G1 X167.908 Y49.686 E.0247
M73 Q0 S330
G1 X192.475 Y74.253 E1.32411
G1 X192.475 Y74.902 E.02473
G1 X167.908 Y50.335 E1.32411
G1 X167.908 Y50.983 E.0247
G1 X192.475 Y75.55 E1.32411
G1 X192.475 Y76.198 E.0247
G1 X167.908 Y51.631 E1.32411
G1 X167.908 Y52.279 E.0247
G1 X192.475 Y76.846 E1.32411
G1 X192.475 Y77.494 E.0247
G1 X167.908 Y52.927 E1.32411
G1 X167.908 Y53.576 E.02473
G1 X192.475 Y78.142 E1.32408
G1 X192.475 Y78.791 E.02473
G1 X167.908 Y54.224 E1.32411
G1 X167.908 Y54.872 E.0247
G1 X192.475 Y79.439 E1.32411
G1 X192.475 Y80.087 E.0247
G1 X167.908 Y55.52 E1.32411
G1 X167.908 Y56.168 E.0247
G1 X192.475 Y80.735 E1.32411
G1 X192.475 Y81.383 E.0247
G1 X167.908 Y56.817 E1.32408
G1 X167.908 Y57.465 E.0247
G1 X192.475 Y82.032 E1.32411
G1 X192.474 Y82.68 E.0247
G1 X167.908 Y58.113 E1.32408
G1 X167.908 Y58.761 E.0247
G1 X192.474 Y83.328 E1.32408
G1 X192.474 Y83.976 E.0247
G1 X167.908 Y59.409 E1.32408
G1 X167.908 Y60.058 E.02473
G1 X192.474 Y84.624 E1.32406
G1 X192.474 Y85.272 E.0247
G1 X167.908 Y60.706 E1.32406
G1 X167.908 Y61.354 E.0247
G1 X192.474 Y85.921 E1.32408
G1 X192.474 Y86.569 E.0247
G1 X167.908 Y62.002 E1.32408
G1 X167.908 Y62.65 E.0247
G1 X192.474 Y87.217 E1.32408
G1 X192.474 Y87.865 E.0247
G1 X167.908 Y63.299 E1.32406
G1 X167.908 Y63.947 E.0247
G1 X192.474 Y88.513 E1.32406
G1 X192.474 Y89.162 E.02473
G1 X167.908 Y64.595 E1.32408
G1 X167.908 Y65.243 E.0247
G1 X192.474 Y89.81 E1.32408
G1 X192.474 Y90.458 E.0247
G1 X167.908 Y65.891 E1.32408
G1 X167.908 Y66.54 E.02473
G1 X192.474 Y91.106 E1.32406
G1 X192.474 Y91.754 E.0247
G1 X167.908 Y67.188 E1.32406
G1 X167.908 Y67.836 E.0247
G1 X192.474 Y92.402 E1.32406
G1 X192.474 Y93.051 E.02473
G1 X167.908 Y68.484 E1.32408
G1 X167.908 Y69.132 E.0247
G1 X192.474 Y93.699 E1.32408
G1 X192.474 Y94.347 E.0247
G1 X167.908 Y69.781 E1.32406
G1 X167.908 Y70.429 E.0247
G1 X192.474 Y94.995 E1.32406
G1 X192.474 Y95.643 E.0247
G1 X167.908 Y71.077 E1.32406
G1 X167.908 Y71.725 E.0247
G1 X192.474 Y96.292 E1.32408
G1 X192.474 Y96.94 E.0247
G1 X167.908 Y72.373 E1.32408
G1 X167.908 Y73.022 E.02473
G1 X192.474 Y97.588 E1.32406
G1 X192.474 Y98.236 E.0247
G1 X167.908 Y73.67 E1.32406
G1 X167.908 Y74.318 E.0247
G1 X192.474 Y98.884 E1.32406
G1 X192.474 Y99.532 E.0247
G1 X167.908 Y74.966 E1.32406
G1 X167.908 Y75.614 E.0247
G1 X192.474 Y100.181 E1.32408
G1 X192.474 Y100.829 E.0247
G1 X167.908 Y76.263 E1.32406
G1 X167.908 Y76.911 E.0247
G1 X192.474 Y101.477 E1.32406
G1 X192.474 Y102.125 E.0247
G1 X167.908 Y77.559 E1.32406
G1 X167.908 Y78.207 E.0247
G1 X192.474 Y102.773 E1.32406
G1 X192.474 Y103.422 E.02473
G1 X167.908 Y78.855 E1.32408
G1 X167.908 Y79.504 E.02473
G1 X192.474 Y104.07 E1.32406
G1 X192.474 Y104.718 E.0247
G1 X167.908 Y80.152 E1.32406
G1 X167.908 Y80.8 E.0247
G1 X192.474 Y105.366 E1.32406
G1 X192.474 Y106.014 E.0247
G1 X167.908 Y81.448 E1.32406
G1 X167.908 Y82.096 E.0247
G1 X192.474 Y106.662 E1.32406
G1 X192.474 Y107.311 E.02473
G1 X167.908 Y82.745 E1.32406
G1 X167.908 Y83.393 E.0247
G1 X192.474 Y107.959 E1.32406
G1 X192.474 Y108.607 E.0247
G1 X167.908 Y84.041 E1.32406
G1 X167.908 Y84.689 E.0247
G1 X192.474 Y109.255 E1.32406
G1 X192.474 Y109.903 E.0247
G1 X167.908 Y85.337 E1.32406
G1 X167.908 Y85.986 E.02473
G1 X192.474 Y110.552 E1.32406
G1 X192.474 Y111.2 E.0247
G1 X167.908 Y86.634 E1.32406
G1 X167.908 Y87.282 E.0247
G1 X192.474 Y111.848 E1.32406
G1 X192.474 Y112.496 E.0247
G1 X167.908 Y87.93 E1.32406
G1 X167.908 Y88.578 E.0247
G1 X192.474 Y113.144 E1.32406
G1 X192.474 Y113.792 E.0247
